!!!OTL: 46. Stille, stille, kein Geraeusch gemacht!
!!!ODT: 1830 (vor)
!!!ARE: Europa, Mitteleuropa, Deutschland, Thueringen
!!!SCT: K0046
!!!TXL: @@DE
!!!YEM: Copyright 1995, estate of Helmut Schaffrath.
**kern	**text
*clefG2	*
*M2/4	*
*k[f#c#]	*
*D:	*
=1	=1
{4a	Stil-
8f#	-le,
8r	.
=2	=2
4a	ſtil-
8f#	-le,
8r}	.
=3	=3
{8.g	kein
16f#	Geräuſch
8g	.
8a	ge-
=4	=4
4f#	-macht!
4r}	.
=5||	=5||
{8e	Darum
8e	.
8g	ſeid
8g	nur
=6	=6
8.f#	al-
16g	-le
4a}	ſtill,
=7	=7
{8e	weil
8e	mein
*	*^
8g	Kindchen	(Schätʒchen)
*	*v	*v
8g	.
=8	=8
8.f#	ſchla-
16g	-fen
4a}	will.
=9||	=9||
{4a	Stille,
8f#	.
8r	.
=10	=10
4a	ſtil-
8f#	-le,
8r}	.
=11	=11
{8.g	kein
16f#	Geräuſch
8g	.
8a	gemacht!
=12	=12
4f#	.
4r}	.
==	==
!!!AGN: Kinder -, Wiegen - Lied
!!!ONB: ESAC (Essen Associative Code) Database: KINDER
!!!AMT: simple duple
!!!AIN: vox
!!!EED: Helmut Schaffrath
!!!EEV: 1.0
!!Aus Thueringen vor 1830
!!@@COMMENT:"Aus meiner Kindheit mir erinnerlich. Pfr. Th. Fliedner in ſeinem Liederbuch für Kleinkinderſchulen (1842) kennt und giebt es aus 
!!dem Bergiſchen, mit ſehr ähnlicher Weiſe, nur Lehrerin ſtatt Kindchen geſetʒt. - Jn Commersbüchern findet
!!man die Mel. ʒum Saufliede: "Bier her!""
!!@@END:
!!!GTL: I. Wiegenlieder.
!!!URL-scan: https://archive.org/details/DeutschesKinderliedUndKinderspiel/page/10/mode/1up
!!!ENC: Anna Maria Matuszewska
!!!EEV: 2024/29/08
*-	*-